X: 11161
Q: "Slow."
M: 3/4
L: 1/16
K: D
[|\
(f4 B4) c4 | (d3e/d/ c4) B4 | (e4 A4) B4 | {B}c8 c4 |\
(d4 {c}B4) {A}^G4 | (e4 c4) A4 | (d4 {c}B4) {A}^G4 | (e4 c4) A4 |\
(G4 F4) E4 | (D4 d4) =c4 |
(B3d G4) A4 | B4 z4 c4 |\
d4 z4 c4 | ({e}d2cd e6) G2 | (G4 F4) z2["^Sym."B2 | B2 B4 A4 [|] A4 |\
(^GAGF EFGA Bc)(dB) | (e2de f4) d4 | (6:4:6(cedcBA) B8 | A8 z4 |\
e4 z4 (dc)(BA) | d4 A4 z4 | e4 A4 z4 | (f3g a4) A4 |
e4 z4 (dc)(BA) | ({e}d2cd) A4 z4 | e4 A4 z4 | (f3g a4) A4 |\


